X:1
T:Rolling Down to Old Mohee
M:4/4
L:1/4
K:A
 z2 z E| A A/2B/2A/2-G/2 F/2E/2| A A A2| c c c B/2A/2| B3 E| A AB/2-A/2 G/2F/2|\
 E A E A| c3/2 A/2c/2-B/2A/2-G/2| A3A/2-G/2| F F F A| E3/2 F/2 EA/2-G/2|\
 F G A B| c3 E| c B A A/2A/2| G B E A/2B/2| c A c B| A3 c| d d d c/2B/2|\
 E E E d/2d/2| cB/2-A/2 E B| A3 z|
